Yaru++/actions/16/distribute-vertical.svg

<svg viewBox="0 0 24 24" xmlns="http://www.w3.org/2000/svg">
  <path d="m8 4v5h8v-5zm1 1h6v3h-6zm1 5v1h1v2h-1v1h4v-1h-1v-2h1v-1zm-2 5v5h8v-5zm1 1h6v3h-6z" fill="#808080"/>
</svg>

<svg xmlns="http://www.w3.org/2000/svg" viewBox="0 0 24 24">
 <defs>
  <style id="current-color-scheme" type="text/css">
   .ColorScheme-Text { color:#808080; }
  </style>
 </defs>
 <path style="fill:currentColor" class="ColorScheme-Text" d="M 8 4 L 8 9 L 16 9 L 16 4 L 8 4 z M 9 5 L 15 5 L 15 8 L 9 8 L 9 5 z M 10 10 L 10 11 L 11 11 L 11 13 L 10 13 L 10 14 L 14 14 L 14 13 L 13 13 L 13 11 L 14 11 L 14 10 L 10 10 z M 8 15 L 8 20 L 16 20 L 16 15 L 8 15 z M 9 16 L 15 16 L 15 19 L 9 19 L 9 16 z"/>
</svg>
